X: 1062
M: 2/4
L: 1/16
K: D
|:\
f4 d4 | c4 z2AA | A2A2B2A2 | f2d2 z4 |\
f4 d4 | g4 ^g4 | a2f2 g2e2 | e2d2 z4 :|
E2CD EA^GB | AEAc e4 | ^GEGB edcB | cABc def^g |\
aece A4 | afdf B4 | ^gfed cBA^G | A2AB AGFE |
f4 d4 | c4 z2AA | A2A2B2A2 | f2d2 z4 |\
f4 d4 | g4 ^g4 | a2f2 g2e2 | e2d2 z4 H|]
[K:G]\

